X:1
T:Carry Your Cross with a Smile
T:Charles Hutchinson Gabriel
T:Carry Your Cross with a Smile
T:Public Domain
T:Public Domain
C:Charles Hutchinson Gabriel
Z:Public Domain
%%score ( 1 2 ) ( 3 4 )
L:1/8
M:6/8
K:Ab
V:1 treble 
V:2 treble 
V:3 bass 
V:4 bass 
V:1
 [CE]/[CE]/ | [CA][CA][CA] [CA][CE][CA] | [Ec][Ec][Fd] [Ec]2 [Ed]/[Ed]/ | %3
w: 1.~Tho’ your|heart may be hea- vy with|sor- row and care, You may|
w: 2.~Let the|well by the way- side that|flows un- to all Strength im-|
w: 3.~For the|work that you faith- ful- ly,|will- ing- ly do, You shall|
 [Ee][Ec][DB] [CA][DG][EA] | [EB]3- [EB]2 [DE]/[DE]/ | [CA][CA][CA] [CA][CE][CA] | %6
w: o- thers to glad- ness be-|guile, * If a|face like the light of the|
w: part for each step of the|mile; * Let your|faith the great prom- is- es|
w: reap a re- ward af- ter|while; * On- ly|grace in your ser- vice can|
 [Ec][Ec][Fd] [Ec]2 [Ed] | [Ee]<[Ee][Fd] [Ec]>[Ec][DB] | [CA]3- [CA]2 z || %9
w: morn- ing you wear, And|car- ry your cross with a|smile! *|
w: oft- en re- call, And|car- ry your cross with a|smile! *|
w: glor- i- fy you, So|car- ry your cross with a|smile! *|
"^Refrain" [Ee]>[F=d][Ee] ccc | (E2 E [Ed]2) z | [Gd]>[^Fc][Gd] BBB | (E2 E [Ec]2) [CE]/[CE]/ | %13
w: ||||
w: Car- ry your cross with a|Car- * *|your cross with a smile; You|o- * * thers from|
w: ||||
 [DF][DF][DF] [EA][EA][EA] | [=DB][DF][Dc] [EB]2 [Ec]/[E=d]/ | [Ee]<[Ee][Fd] [Ec]>[Ec][DB] | %16
w: |||
w: ness to glad- ness be- guile,|If you car- ry your cross|with a smile. * * *|
w: |||
 [CA]3- [CA]2 |] %17
w: |
w: |
w: |
V:2
 x | x6 | x6 | x6 | x6 | x6 | x6 | x6 | x6 || x3 E3 | d3- x3 | x3 E3 | c3- x3 | x6 | x6 | x6 | %16
w: ||||||||||||||||
w: |||||||||smile,|ry|may|sad-||||
 x5 |] %17
w: |
w: |
V:3
 [A,,A,]/[A,,A,]/ | [A,,E,][A,,E,][A,,E,] [A,,E,][A,,A,][A,,E,] | %2
w: ~ ~|~ ~ ~ ~ ~ ~|
 [A,,A,][A,,A,][A,,A,] [A,,A,]2 A,/A,/ | [A,C]A,A, [A,,A,][B,,F,][C,A,] | %4
w: ~ ~ ~ ~ ~ ~|~ ~ ~ ~ ~ ~|
 [E,G,]3- [E,G,]2 [E,G,]/[E,G,]/ | [A,,A,][A,,E,][A,,E,] [A,,E,][A,,A,][A,,E,] | %6
w: ~ * ~ ~|~ ~ ~ ~ ~ ~|
 [A,,A,][A,,A,][A,,A,] [A,,A,]2 [A,,G,] | [C,A,]<[C,A,][D,A,] [E,A,]>[E,A,][E,G,] | %8
w: ~ ~ ~ ~ ~|~ ~ ~ Car- ry your|
 [A,,A,]3- [A,,A,]2 z || [A,C]>[A,=B,][A,C] A,3 | [E,G,]2 [E,G,] [E,G,]2 z | %11
w: cross *|with a smile, Car-|your cross with|
 [E,B,]>[E,=A,][E,B,] [E,G,]3 | A,2 A, A,2 [A,,A,]/[A,,A,]/ | %13
w: a smile; * *||
 [D,A,][D,A,][D,A,] [C,A,][C,A,][C,A,] | [B,,A,][B,,A,][B,,A,] [E,G,]2 [E,A,]/[D,B,]/ | %15
w: ||
 [C,A,]<[C,A,][D,A,] [E,A,]>[E,A,][E,G,] | [A,,A,]3- [A,,A,]2 |] %17
w: ||
V:4
 x | x6 | x5 A,/A,/ | x A,A, x3 | x6 | x6 | x6 | x6 | x6 || x3 A,3 | x6 | x6 | A,2 A, A,2 x | x6 | %14
w: ||~ ~|~ ~||||||ry|||||
 x6 | x6 | x5 |] %17
w: |||

